X: 133
T: No_67_The_Meeting_with_Elder_Brother.krn
N: Derived from No_67_The_Meeting_with_Elder_Brother.krn
%%abc-version 2.0
%%abcx-abcm2ps-target-version 5.9.1 (29 Sep 2008)
%%abc-creator hum2abc beta
%%abcx-conversion-date 2019/03/15 08:37:56
%%humdrum-veritas 2234568595
%%humdrum-veritas-data 1876414397
%%linebreak <none>
%%barnumbers 0
L: 1/8
M: 2/4
K: G clef=bass
[K:clef=bass][M:2/4]D3/D/ D3/B,/ | 
A,3/A,/A,2 ]|:  
C7/G,/ | 
G,3/G,/ G,3/G,/ | 
(3(G,/F,)E,E,2 | 
G,3F, | 
G,2F,2 | 
(F,E,)E,2 | 
G,2(3(G,/F,)E, | 
E,2(3(F,/E,)E, | 
E,2(C,3/E,/) | 
E,3/E,/ E,3/C,/ | 
C,7/E,/ | 
E,2B,,/B,,E,/ | 
E,/E,3/ E,3/D,/ | 
E,4 :|]  



